X: 6948
T: Chesterton Meadows
R: slip jig
M: 9/8
K: Eminor
A|:B2E ~c2A BGE|EBe d2c ABc|~B2f ~g2f e2d|1 B3 BAG ~F2A:|2 ~B3 AGF E3||
|:g3 efg fdB|c3 edc B3|1 Bef ~g2a bge|Bff f2e f2a:|2 c3 edc BGE|F2B AGF E2A||

